app/dist/common/images/unity-bancorp.svg

<svg height="18" viewBox="0 0 18 18" width="18" xmlns="http://www.w3.org/2000/svg"><path d="m0 0h18v18h-18z" fill="#f0f3fa"/><path d="m9 3 6 5.47v1.24l-5.8 5.29h-.4l-5.8-5.3v-1.22zm0 .35 5.8 5.3-5.8 5.3-5.8-5.3z" fill-rule="evenodd"/><path d="m9.38 6.17h-2.44c-.19.7-.6 2.28-.75 3.1-.19 1.05.19 1.73 2.06 1.73 1.5 0 3.13-1.03 3.75-1.55-.9.14-1-.29-.94-.52l.94-2.76h-2.25c-.37.93-1.12 2.83-1.12 3.1 0 .35 0 .7.75.7.6 0 1.5-.23 1.87-.35-.56.35-1.12.52-1.87.52-1.2 0-1.25-.8-1.13-1.2z"/><path d="m9.23 6h-2.43c-.18.69-.6 2.28-.75 3.1-.18 1.04.2 1.73 2.07 1.73 1.5 0 3.12-1.04 3.75-1.55-.9.13-1-.3-.94-.52l.93-2.76h-2.26c-.38.92-1.13 2.83-1.13 3.1 0 .35 0 .7.75.7.6 0 1.5-.24 1.88-.35-.57.34-1.13.52-1.88.52-1.2 0-1.25-.8-1.12-1.21z" fill="#00a1b1"/></svg>

<!-- by TradingView --><svg width="18" height="18" viewBox="0 0 18 18" xmlns="http://www.w3.org/2000/svg"><path fill="#F0F3FA" d="M0 0h18v18H0z"/><path fill-rule="evenodd" d="m9 3 6 5.47v1.24L9.2 15h-.4L3 9.7V8.48L9 3Zm0 .35 5.8 5.3-5.8 5.3-5.8-5.3L9 3.35Z"/><path d="M9.38 6.17H6.94c-.19.7-.6 2.28-.75 3.1C6 10.32 6.38 11 8.25 11c1.5 0 3.13-1.03 3.75-1.55-.9.14-1-.29-.94-.52L12 6.17H9.75C9.38 7.1 8.63 9 8.63 9.27c0 .35 0 .7.75.7.6 0 1.5-.23 1.87-.35-.56.35-1.12.52-1.87.52-1.2 0-1.25-.8-1.13-1.2l1.13-2.77Z"/><path d="M9.23 6H6.8c-.18.69-.6 2.28-.75 3.1-.18 1.04.2 1.73 2.07 1.73 1.5 0 3.12-1.04 3.75-1.55-.9.13-1-.3-.94-.52L11.86 6H9.6c-.38.92-1.13 2.83-1.13 3.1 0 .35 0 .7.75.7.6 0 1.5-.24 1.88-.35-.57.34-1.13.52-1.88.52-1.2 0-1.25-.8-1.12-1.21L9.23 6Z" fill="#00A1B1"/></svg>
